**kern	**kern
*staff2	*staff1
*clefF4	*clefG2
*k[b-e-]	*k[b-e-]
*M3/8	*M3/8
=213	=213
16F#LL	8r
16E-	.
16D	8ddL
16C	.
16BB-	8ddJ
16AAJJ	.
=214	=214
16GGLL	4gg
16d	.
16B-	.
16d	.
16G	(32ggLLL
.	32ff#
16dJJ	32gg
.	32aaJJJ)
=215	=215
16GLL	4bb-'
16d	.
16B-	.
16d	.
16G	8gg'
16dJJ	.
=216	=216
16F#LL	4aa'
16d	.
16A	.
16d	.
16F#	(8cc#
16dJJ	.
=217	=217
16F#LL	4dd)
16d	.
16A	.
16d	.
*	*clefF4
16F#	(8C#
16dJJ	.
=218	=218
16F#LL	4D)
16d	.
16A	.
16d	.
*	*clefG2
16F#	(32aaLLL
.	32gg
16dJJ	32aa
.	32bb-JJJ)
=219	=219
16F#LL	4ccc'
16d	.
16A	.
16d	.
16F#	8aa'
16dJJ	.
=220	=220
16GLL	4bb-'
16d	.
16B-	.
16d	.
16G	(8f#
16dJJ	.
=221	=221
16GLL	4g)
16d	.
16B-	.
16d	.
*	*clefF4
16G	(8FF#
16dJJ	.
=222	=222
16GLL	4GG)
16d	.
16B-	.
16d	.
*	*clefG2
16G	(32bb-LLL
.	32aa
16dJJ	32bb-
.	32cccJJJ)
=223	=223
16GLL	4ddd'
16d	.
16B-	.
16d	.
16G	8bb-'
16dJJ	.
=224	=224
16FLL	16.aa'LL
16d	.
.	(32aaJJk
16A	4ddd)
16d	.
16F	.
16dJJ	.
=225	=225
16GLL	16.gg'LL
16e	.
.	(32ggJJk
16B-	4bb-)
16e	.
16G	.
16eJJ	.
=226	=226
16ALL	16.ff'LL
16f	.
.	(32ffJJk
16d	4aa)
16f	.
16A	.
16fJJ	.
=227	=227
16ALL	16.ee'LL
16g	.
.	(32eeJJk
16c#	4aa)
16g	.
16A	.
16gJJ	.
=228	=228
4d 4f	16ddLL
.	16b-
.	16a
.	16g
8r	16f
.	16eJJ
=	=
*-	*-
